icons/Solidity.svg

<svg xmlns="http://www.w3.org/2000/svg" width="256" height="256" fill="none" viewBox="0 0 256 256"><rect width="256" height="256" fill="#65AFFF" rx="60"/><path fill="#000" d="M165.536 25L128.006 83.79H53L90.5034 25H165.536Z" opacity=".45"/><path fill="#000" d="M128.006 83.79H203.039L165.536 25H90.5034L128.006 83.79Z" opacity=".6"/><path fill="#000" d="M90.5034 142.557L128.006 83.79L90.5034 25L53 83.79L90.5034 142.557Z" opacity=".8"/><path fill="#000" d="M90.8667 230.742L128.396 171.952H203.429L165.899 230.742H90.8667Z" opacity=".45"/><path fill="#000" d="M128.396 171.952H53.3633L90.8664 230.742H165.899L128.396 171.952Z" opacity=".6"/><path fill="#000" d="M165.899 113.185L128.396 171.952L165.899 230.742L203.428 171.952L165.899 113.185Z" opacity=".8"/></svg>

<svg xmlns="http://www.w3.org/2000/svg" width="256" height="256" fill="none" viewBox="0 0 256 256"><rect width="256" height="256" fill="#65AFFF" rx="60"/><path fill="#000" d="M165.54 25 128 83.79H53L90.5 25z" opacity=".45"/><path fill="#000" d="M128 83.79h75.04L165.54 25H90.5z" opacity=".6"/><path fill="#000" d="M90.5 142.56 128 83.79 90.5 25 53 83.79z" opacity=".8"/><path fill="#000" d="m90.87 230.74 37.53-58.79h75.03l-37.53 58.8z" opacity=".45"/><path fill="#000" d="M128.4 171.95H53.36l37.5 58.8h75.04z" opacity=".6"/><path fill="#000" d="m165.9 113.19-37.5 58.76 37.5 58.8 37.53-58.8z" opacity=".8"/></svg>
